X:1
T:The Ashford Assembly
T:The Ashford Assembly
T:Colin Hume
C:Colin Hume
L:1/8
M:6/8
K:G
V:1 treble 
V:1
 B | e2 B G2 BAGF E2 F G2 GGFG A3 A2 B | e2 B g2 B c2 B A2 B c2 ccBc d2 B A2 G | %3
 F2 F FEF G3 G2 B e2 B G2 BAGF E2 F | G2 G GFG A3 A2 B e2 B g2 B c2 B A2 B | %5
 c2 c cBc d2 B A2 G F2 FFEF G3 G2 G | F2 F FGA G2 D G2 B A2 AABc B2 G B2 d | %7
 c2 c cde d3 d2 d g2 g B2 dcBA G2 E | F2 F FEF G3 G2 G F2 FFGA G2 D G2 B | %9
 A2 A ABc B2 G B2 d c2 ccde d3 d2 d | g2 g B2 dcBA G2 E F2 FFEF G3 G2 || %11

